icons/linear-ele-other-table-lamp.svg

<svg xmlns="http://www.w3.org/2000/svg" width="32px" height="32px" viewBox="0 0 32 32" version="1.1">
    <title>linear-ele-other-table-lamp</title>
    <g id="linear-ele-other-table-lamp" stroke-width="1" fill-rule="evenodd">
        <path d="M11,30 C10.4477153,30 10,29.5522847 10,29 C10,28.4477153 10.4477153,28 11,28 L14.9995074,28 L14.9995074,20 L5,20 C4.34942885,20 3.87207082,19.3886111 4.0298575,18.7574644 L8.0298575,2.75746437 C8.14114925,2.31229737 8.54113236,2 9,2 L23,2 C23.4588676,2 23.8588507,2.31229737 23.9701425,2.75746437 L27.9701425,18.7574644 C28.1279292,19.3886111 27.6505712,20 27,20 L21.9995074,20 L22,23 C22,23.5522847 21.5522847,24 21,24 C20.4477153,24 20,23.5522847 20,23 L19.9995074,20 L16.9995074,20 L16.9995074,28 L21,28 C21.5522847,28 22,28.4477153 22,29 C22,29.5522847 21.5522847,30 21,30 L11,30 Z M22.218,4 L9.781,4 L6.281,18 L25.718,18 L22.218,4 Z" id="&#24418;&#29366;" fill-rule="nonzero" />
    </g>
</svg>

<svg xmlns="http://www.w3.org/2000/svg" viewBox="0 0 32 32"><path fill="currentColor" d="M11 30a1 1 0 0 1 0-2h4v-8H5a1 1 0 0 1-.97-1.243l4-16A1 1 0 0 1 9 2h14a1 1 0 0 1 .97.757l4 16A1 1 0 0 1 27 20h-5v3a1 1 0 0 1-2 0v-3h-3v8h4a1 1 0 0 1 0 2zM22.218 4H9.781l-3.5 14h19.437z"/></svg>
